icons/arrow-direction-two-color.svg

<?xml version="1.0" encoding="UTF-8"?><svg xmlns="http://www.w3.org/2000/svg" viewBox="0 0 50 50"><g id="uuid-f23125de-e9ac-4164-9e95-5aee9a48d35a"><g><path d="M47.86,24.43L26.87,3.45c-.19-.19-.52-.19-.71,0l-3.75,3.75c-.09,.09-.15,.22-.15,.35s.05,.26,.15,.35l14.34,14.34c.14,.14,.19,.36,.11,.54-.08,.19-.26,.31-.46,.31H3.91v6.3H36.4c.2,0,.38,.12,.46,.31,.08,.19,.03,.4-.11,.54l-14.34,14.34c-.09,.09-.15,.22-.15,.35s.05,.26,.15,.35l3.75,3.75c.19,.19,.52,.19,.71,0l20.99-20.99c.48-.48,.74-1.12,.73-1.81,.01-.7-.25-1.34-.73-1.82Z" fill="#ffcd00"/><path d="M47.06,22.23L26.08,1.24c-.57-.57-1.56-.57-2.12,0l-3.75,3.75c-.28,.28-.44,.66-.44,1.06s.16,.78,.44,1.06l13.49,13.49H1.91c-.28,0-.5,.22-.5,.5v7.3c0,.28,.22,.5,.5,.5h31.78l-13.49,13.48c-.28,.28-.44,.66-.44,1.06s.16,.78,.44,1.06l3.75,3.75c.28,.28,.66,.44,1.06,.44s.78-.16,1.06-.44l20.99-20.99c.67-.67,1.04-1.57,1.02-2.51,.01-.96-.35-1.85-1.02-2.53Zm-.71,4.33l-20.99,20.99c-.19,.19-.52,.19-.71,0l-3.75-3.75c-.09-.09-.15-.22-.15-.35s.05-.26,.15-.35l14.34-14.34c.14-.14,.19-.36,.11-.54-.08-.19-.26-.31-.46-.31H2.41v-6.3H34.9c.2,0,.38-.12,.46-.31,.08-.19,.03-.4-.11-.54L20.91,6.4c-.09-.09-.15-.22-.15-.35s.05-.26,.15-.35l3.75-3.75c.19-.19,.52-.19,.71,0l20.99,20.99c.48,.48,.74,1.12,.73,1.82,.01,.68-.25,1.33-.73,1.81Z"/></g></g><g id="uuid-ba22fd4a-f8d7-43fc-94eb-3e1a8d63db11"><text transform="translate(0 55.05)" font-family="Roboto-Regular, Roboto" font-size="6"><tspan x="0" y="0">ar</tspan><tspan x="5.29" y="0" letter-spacing="0em">r</tspan><tspan x="7.27" y="0">ow-di</tspan><tspan x="21.69" y="0" letter-spacing="0em">r</tspan><tspan x="23.67" y="0">ection</tspan></text></g></svg>

<svg xmlns="http://www.w3.org/2000/svg" viewBox="0 0 50 50"><g id="f947838c-2296-411d-9dbb-2e2027fc6ac1" data-name="ICONS"><path d="M47.86,24.43l-21-21a.51.51,0,0,0-.71,0L22.41,7.19a.52.52,0,0,0-.14.36.5.5,0,0,0,.14.35L36.75,22.24a.49.49,0,0,1,.11.55.51.51,0,0,1-.46.3H3.91V29.4H36.4a.51.51,0,0,1,.46.3.49.49,0,0,1-.11.55L22.41,44.59a.5.5,0,0,0-.14.35.52.52,0,0,0,.14.36L26.16,49a.51.51,0,0,0,.71,0l21-21a2.65,2.65,0,0,0,0-3.63Z" fill="#fdd600"/><path d="M47.06,22.23l-21-21a1.53,1.53,0,0,0-2.12,0L20.21,5a1.5,1.5,0,0,0,0,2.12L33.69,20.59H1.91a.51.51,0,0,0-.5.5V28.4a.51.51,0,0,0,.5.5H33.69L20.21,42.38a1.5,1.5,0,0,0,0,2.12L24,48.25a1.5,1.5,0,0,0,1.06.44,1.52,1.52,0,0,0,1.06-.44l21-21a3.61,3.61,0,0,0,0-5Zm-.7,4.33-21,21a.51.51,0,0,1-.71,0L20.91,43.8a.52.52,0,0,1-.14-.36.5.5,0,0,1,.14-.35L35.25,28.75a.49.49,0,0,0,.11-.55.51.51,0,0,0-.46-.3H2.41V21.59H34.9a.51.51,0,0,0,.46-.3.49.49,0,0,0-.11-.55L20.91,6.4a.5.5,0,0,1-.14-.35.52.52,0,0,1,.14-.36L24.66,2a.51.51,0,0,1,.71,0l21,21a2.65,2.65,0,0,1,0,3.63Z" fill="#231f20"/></g><g id="a00fd54f-17b7-42d4-a6d0-81e223d602bb" data-name="LABELS"><text transform="translate(0 55.05)" font-size="6" fill="#231f20" font-family="Roboto-Regular, Roboto">ar<tspan x="5.29" y="0" letter-spacing="-0.01em">r</tspan><tspan x="7.27" y="0">ow-di</tspan><tspan x="21.69" y="0" letter-spacing="-0.01em">r</tspan><tspan x="23.67" y="0">ection</tspan></text></g></svg>
